!!!!SEGMENT: pl-wnifc--13846--035_anonim--piesni-polskie-i-ruskie-ludu-galicyjskiego-35-padla-rosa-padla-rosa-wzielonej-debinie.krn
!!!kernsource:
!!!cenid: 18xx:3257
!!!COM: Anonim
!!!COM-rismID: pe30004985
!!!CDT:
!!!CNT:
!!!GTL: Pieśni polskie i ruskie ludu galicyjskiego
!!!OTL: 35. Padła rosa, padła rosa, wzielonéj dębinie
!!!PDT: 1833
!!!AGN:
!!!SMS-siglum: PL-Wnifc
!!!SMS-shelfmark: 13846
!!!SMS-shelfwork: 035 G
!!!SMS-variant:
!!!SMS-altvar:
!!!NIFC-rismSourceID: 1001036701
!!!NIFC-rismChildID: 1001036907
!!!NIFC-islandoraID: nifc:210326
!!!URL-pdf-islandora: https://repozytorium.nifc.pl/islandora/object/nifc%3A210326/datastream/PDF/view
!!!URL-scan:
!!!ONB-nifc:
!!!OMD: Krakowiak.
!!!AIN: 1 piano 1 vox
!!!key: G
**kern	**kern	**dynam	**kern	**text
*part2	*part2	*part2	*part1	*part1
*staff3	*staff2	*	*staff1	*staff1
*I"Fortepian	*I"Fortepian	*	*I"Głos	*
*Ipiano	*Ipiano	*	*Ivox	*
*ICklav	*ICklav	*	*ICvox	*
*IGacmp	*IGacmp	*	*IGsolo	*
*clefF4	*clefG2	*	*clefG2	*
*k[f#]	*k[f#]	*	*k[f#]	*
*G:	*G:	*	*G:	*
*M2/4	*M2/4	*	*M2/4	*
*>[A,B,B]	*>[A,B,B]	*	*>[A,B,B]	*
=1	=1	=1	=1	=1
*>A	*>A	*	*>A	*
!	!	!	!LO:TX:a:t=D.b.&#1041;.1.	!
8GG/L	8d/L 8dd/	.	8dd\	Pa-
8BB\ 8G\	8dd\	.	8dd\	-dła
8GG/	8dd\	.	8dd\	ro-
8BB\J 8G\	8dd\J	.	8dd\	-sa,
=2	=2	=2	=2	=2
8GG\L	8dd\L	.	8dd\	pa-
8BB\ 8G\	8dd\	.	8dd\	-dła
8GG\	8b\	.	8b/	ro-
8BB\J 8G\	8g/J	.	8g/	-sa,
=3	=3	=3	=3	=3
!LO:TX:t=P:problem=mixed beam	!	!	!	!
8DD/L	8f#\L 8a\	.	8a/	w_zie-
8D\	8g\ 8b\	.	8b/	-lo-
8d\	8a\ 8cc\	.	8cc\	-nej
8D\J	8f#\J 8dd\	.	8dd\	dę-
!!LO:LB:g=original
=4	=4	=4	=4	=4
8GG/`	8d/ 8g/ 8b/	.	8b/	-bi-
!	!	!LO:DY:rj	!	!
8D\`L	4g/	sf	4g/	-nie;
(8G\ 8B\	.	.	.	.
8D\J)	8r	.	8r	.
=5	=5	=5	=5	=5
!LO:TX:t=P:problem=mixed beam	!	!	!	!
8DD/L	8f#/L 8a/	.	8a/	w_zie-
8D\J	8g/ 8b/	.	8b/	-lo-
(8F#\L 8d\	8a/ 8cc/	.	8cc\	-nej
8D\J)	8f#/J 8dd/	.	8dd\	dę-
=6	=6	=6	=6	=6
8GG/	8d/ 8g/ 8b/	.	8b\	-bi-
!	!	!LO:DY:rj	!	!
8D\L	4g/	sf	4g/	-nie;
(8G\ 8B\	.	.	.	.
8D\J)	8r	.	8r	.
!!LO:PB:g=original
=7!|:	=7!|:	=7!|:	=7!|:	=7!|:
*>B	*>B	*	*>B	*
!LO:TX:t=P:problem=mixed beam	!	!	!	!
8DD/L	8d/	.	8d/	ko-
8D\J 8F#\ 8c\	8d/	.	8d/	-chaj-
8D\L	8d/	.	8d/	-że
8F#\J 8c\	8d/	.	8d/	mię
=8	=8	=8	=8	=8
!LO:TX:t=P:problem=mixed beam	!	!	!	!
8GG/L	8g/L	.	8g/	mój
8D\J 8G\ 8B\	8g/	.	8g/	Ja-
!LO:TX:t=P:problem=mixed beam	!	!	!	!
8GG/L	8g/	.	8g/	-sień-
8D\J 8G\ 8B\	8g/J	.	8g/	-ku,
!!LO:LB:g=original
=9	=9	=9	=9	=9
8DD/L	8f#/L 8a/	.	8a/	szcze-
8D\	8g/ 8b/	.	8b/	-rze
8DD/	8a/ 8cc/	.	8cc\	nie
8D\J	8f#/J 8dd/	.	8dd\	zdra-
=10	=10	=10	=10	=10
8GG/L 8D/	8g/ 8b/	.	8b\	-dli-
!	!	!LO:DY:t=sf.	!	!
8G\	4.g/	sf	4.g/	-wie.
8GG/ 8D/	.	.	.	.
8G\J	.	.	.	.
!!LO:LB:g=original
==	==	==	==	==
*-	*-	*-	*-	*-
!!!system-decoration: s1,{(s2,s3)}
!!!RDF**kern: < = below
!!!RDF**kern: > = above
!!!ENC: Emilia Ziętek
!!!END: 2021-10-10
!!!ENC: Marta Chmielewska
!!!END: 2021-11-10
!!!YEC: Copyright 2022 Narodowy Instytut Fryderyka Chopina (https://polishscores.org)
!!!YEM: License CC-BY-4.0 (https://creativecommons.org/licenses/by/4.0)
